X:133
M:C |
L:1/8
K:A
|: e2e2 | e2 dc fefg | e4 agae |1 agfe dcBA | E4 :|2 agfe dcBc | A4 ||
|: {B}A2 GF | E2E2 FEFG | E4 ABcd |1 cdef e2e2 | e4 :|2 cdef edcB | A4 |]

